X:130
T:Jenny's wedding
R:Reel
O:Ireland
B:O'Neill's 1479
S:O'Neill's 1479
Z:Transcription:John B. Walsh, chords:Mike Long
M:C|
L:1/8
K:D
"D"~D2FD ADFD|Adde fded|"A"cAAB "C"=c2cd|"C"ea{b}ag "A"edcd|\
"D"~D2FA defd|
"A"cAAB cdeg|"D"fdec "G"d2cA|"A"BdAF EDFA:|\
|:"D"~d2fd adfd|"A"ecAB cdec|
"D"~d2fd adfd|"A"cdeg "D"fdd2|\
"D"~d2fd adfd|"A"cdef "G"g2fg|"D"(3(agf) ge fdec|"G"dBAG "D"FDD2:|
